apps/scalable/software-properties.svg

<?xml version="1.0" encoding="UTF-8" standalone="no"?>
<!-- Created with Inkscape (http://www.inkscape.org/) -->

<svg
   xmlns:dc="http://purl.org/dc/elements/1.1/"
   xmlns:cc="http://creativecommons.org/ns#"
   xmlns:rdf="http://www.w3.org/1999/02/22-rdf-syntax-ns#"
   xmlns:svg="http://www.w3.org/2000/svg"
   xmlns="http://www.w3.org/2000/svg"
   xmlns:sodipodi="http://sodipodi.sourceforge.net/DTD/sodipodi-0.dtd"
   xmlns:inkscape="http://www.inkscape.org/namespaces/inkscape"
   width="48"
   height="48"
   id="svg2"
   version="1.1"
   inkscape:version="0.49 r12742"
   sodipodi:docname="appset.svg">
  <defs
     id="defs4" />
  <sodipodi:namedview
     id="base"
     pagecolor="#ffffff"
     bordercolor="#666666"
     borderopacity="1.0"
     inkscape:pageopacity="0.0"
     inkscape:pageshadow="2"
     inkscape:zoom="8"
     inkscape:cx="17.682244"
     inkscape:cy="18.84361"
     inkscape:document-units="px"
     inkscape:current-layer="layer1"
     showgrid="false"
     inkscape:showpageshadow="false"
     borderlayer="true"
     inkscape:window-width="1366"
     inkscape:window-height="718"
     inkscape:window-x="-2"
     inkscape:window-y="23"
     inkscape:window-maximized="1">
    <sodipodi:guide
       position="9,39.000017"
       orientation="30,0"
       id="guide3275" />
    <sodipodi:guide
       position="9,9.0000174"
       orientation="0,30"
       id="guide3277" />
    <sodipodi:guide
       position="39,9.0000174"
       orientation="-30,0"
       id="guide3279" />
    <sodipodi:guide
       position="39,39.000017"
       orientation="0,-30"
       id="guide3281" />
    <sodipodi:guide
       position="4,44.000017"
       orientation="40,0"
       id="guide4198" />
    <sodipodi:guide
       position="4,4.0000174"
       orientation="0,40"
       id="guide4200" />
    <sodipodi:guide
       position="44,4.0000174"
       orientation="-40,0"
       id="guide4202" />
    <sodipodi:guide
       position="44,44.000017"
       orientation="0,-40"
       id="guide4204" />
    <sodipodi:guide
       position="20.5,8.0002615"
       orientation="4,0"
       id="guide4210" />
    <sodipodi:guide
       position="20.5,4.0002615"
       orientation="0,7"
       id="guide4212" />
    <sodipodi:guide
       position="27.5,4.0002615"
       orientation="-4,0"
       id="guide4214" />
    <sodipodi:guide
       position="27.5,8.0002615"
       orientation="0,-7"
       id="guide4216" />
    <sodipodi:guide
       position="20.5,44.000017"
       orientation="4,0"
       id="guide4229" />
    <sodipodi:guide
       position="20.5,40.000017"
       orientation="0,7"
       id="guide4231" />
    <sodipodi:guide
       position="27.5,40.000017"
       orientation="-4,0"
       id="guide4233" />
    <sodipodi:guide
       position="27.5,44.000017"
       orientation="0,-7"
       id="guide4235" />
  </sodipodi:namedview>
  <metadata
     id="metadata7">
    <rdf:RDF>
      <cc:Work
         rdf:about="">
        <dc:format>image/svg+xml</dc:format>
        <dc:type
           rdf:resource="http://purl.org/dc/dcmitype/StillImage" />
        <dc:title />
      </cc:Work>
    </rdf:RDF>
  </metadata>
  <g
     inkscape:label="Capa 1"
     inkscape:groupmode="layer"
     id="layer1"
     transform="translate(0,-1004.3622)">
    <g
       id="g4108"
       transform="translate(40,8.6914063e-6)">
      <rect
         ry="0"
         y="1008.3622"
         x="-36"
         height="40"
         width="40"
         id="rect3304"
         style="fill:#d4a275;fill-opacity:1;fill-rule:evenodd;stroke:none" />
      <path
         inkscape:connector-curvature="0"
         id="rect3340"
         d="m -34.099609,1008.3622 0,40 0.199218,0 0,-40 -0.199218,0 z m 2,0 0,40 0.199218,0 0,-40 -0.199218,0 z m 2,0 0,40 0.199218,0 0,-40 -0.199218,0 z m 2,0 0,40 0.199218,0 0,-40 -0.199218,0 z m 2,0 0,40 0.199218,0 0,-40 -0.199218,0 z m 2,0 0,40 0.199218,0 0,-40 -0.199218,0 z m 2,0 0,40 0.199218,0 0,-40 -0.199218,0 z m 2,0 0,40 0.199218,0 0,-40 -0.199218,0 z m 2,0 0,40 0.199218,0 0,-40 -0.199218,0 z m 2,0 0,40 0.199218,0 0,-40 -0.199218,0 z m 2,0 0,40 0.199218,0 0,-40 -0.199218,0 z m 2,0 0,40 0.199218,0 0,-40 -0.199218,0 z m 2,0 0,40 0.199218,0 0,-40 -0.199218,0 z m 2,0 0,40 0.199218,0 0,-40 -0.199218,0 z m 2,0 0,40 0.199218,0 0,-40 -0.199218,0 z m 2,0 0,40 0.199218,0 0,-40 -0.199218,0 z m 2,0 0,40 0.199218,0 0,-40 -0.199218,0 z m 2,0 0,40 0.199218,0 0,-40 -0.199218,0 z m 2,0 0,40 0.199218,0 0,-40 -0.199218,0 z"
         style="fill:#c89766;fill-opacity:1;fill-rule:evenodd;stroke:none" />
      <rect
         y="1023.3622"
         x="-18"
         height="7"
         width="4"
         id="rect4351"
         style="fill:#201810;fill-opacity:1;fill-rule:evenodd;stroke:none" />
      <path
         transform="matrix(1.4941567,0,0,0.94107467,-51.859764,57.126936)"
         inkscape:transform-center-y="1.0001363"
         d="m 24.000002,1037.3622 -3.681006,-6.3757 7.362012,0 z"
         inkscape:randomized="0"
         inkscape:rounded="0"
         inkscape:flatsided="true"
         sodipodi:arg2="2.6179939"
         sodipodi:arg1="1.5707963"
         sodipodi:r2="2.1252298"
         sodipodi:r1="4.2504597"
         sodipodi:cy="1033.1117"
         sodipodi:cx="24.000002"
         sodipodi:sides="3"
         id="path4353"
         style="fill:#201810;fill-opacity:1;fill-rule:evenodd;stroke:none"
         sodipodi:type="star" />
      <rect
         y="1044.3619"
         x="-19.5"
         height="4.000001"
         width="7"
         id="rect4206"
         style="fill:#dbb797;fill-opacity:1;fill-rule:evenodd;stroke:none" />
      <rect
         style="fill:#dbb797;fill-opacity:1;fill-rule:evenodd;stroke:none"
         id="rect4223"
         width="7"
         height="4.000001"
         x="-19.5"
         y="1008.3622" />
      <g
         transform="translate(-40,0)"
         id="g4098">
        <path
           inkscape:connector-curvature="0"
           style="fill:#201810;fill-opacity:1;stroke:none"
           d="m 23.996094,15 c -2.356358,2e-4 -4.698317,0.970619 -6.363282,2.636719 C 15.967848,19.302819 15,21.644 15,24 c 0,2.356 0.967848,4.697181 2.632812,6.363281 1.664965,1.6661 4.006924,2.636519 6.363282,2.636719 2.356356,2e-4 4.698145,-0.970619 6.365234,-2.636719 C 32.028418,28.697181 33,26.3563 33,24 33,21.6437 32.028418,19.302819 30.361328,17.636719 28.694239,15.970619 26.35245,14.9998 23.996094,15 Z m 0,2 C 27.661538,16.9998 31,20.3347 31,24 31,27.6653 27.661538,31.0002 23.996094,31 20.330649,30.9998 17,27.665 17,24 c 0,-3.665 3.330649,-6.9998 6.996094,-7 z"
           transform="translate(0,1004.3622)"
           id="path3331" />
        <path
           inkscape:connector-curvature="0"
           style="fill:#110d08;fill-opacity:1;fill-rule:evenodd;stroke:none"
           d="m 23.996094,15 c -0.03198,3e-6 -0.06372,0.0035 -0.0957,0.0039 l 0,2.001953 c 0.03212,-5.13e-4 0.06353,-0.0059 0.0957,-0.0059 0.03469,-2e-6 0.06889,0.0053 0.103515,0.0059 l 0,-2 c -0.03462,-4.15e-4 -0.06889,-0.0059 -0.103515,-0.0059 z m -1.896485,0.214844 c -0.06682,0.01469 -0.132744,0.03263 -0.199218,0.04883 l 0,2.103516 c 0.06625,-0.02314 0.1323,-0.04535 0.199218,-0.06641 l 0,-2.085937 z m 3.800782,0.002 0,2.085937 c 0.06684,0.02108 0.133043,0.04324 0.199218,0.06641 l 0,-2.103516 c -0.06646,-0.01625 -0.132411,-0.03408 -0.199218,-0.04883 z M 20.099609,15.90825 C 20.033439,15.94 19.965778,15.96868 19.900391,16.002 l 0,2.455078 c 0.06674,-0.05097 0.130868,-0.105601 0.199218,-0.154297 l 0,-2.394531 z m 7.800782,0.0039 0,2.396485 c 0.06759,0.0482 0.133201,0.09997 0.199218,0.15039 l 0,-2.453125 c -0.06538,-0.03339 -0.133059,-0.06193 -0.199218,-0.09375 z m -9.800782,1.302735 c -0.06768,0.05853 -0.133364,0.119087 -0.199218,0.179687 l 0,3.332031 c 0.06168,-0.108093 0.132069,-0.211425 0.199218,-0.316406 l 0,-3.195312 z m 11.800782,0.0059 0,3.193359 c 0.06721,0.105023 0.137489,0.208274 0.199218,0.316407 l 0,-3.330078 c -0.06576,-0.06057 -0.131648,-0.121176 -0.199218,-0.179688 z M 22,19 l 0,4 -0.09961,0 0,3.708984 0.199218,0.21875 0,-7.927734 L 22,19 Z m 1.900391,0 0,9.890625 L 24,29 l 0.09961,-0.109375 0,-9.890625 -0.199218,0 z m 2,0 0,7.927734 0.199218,-0.21875 0,-3.708984 L 26,23 l 0,-4 -0.09961,0 z m -9.800782,0.708984 c -0.07189,0.133254 -0.133987,0.271542 -0.199218,0.408204 l 0,7.765624 c 0.06523,0.136662 0.127329,0.27495 0.199218,0.408204 l 0,-8.582032 z m 15.800782,0.0039 0,8.574218 c 0.07211,-0.1335 0.133794,-0.271287 0.199218,-0.408203 l 0,-7.757812 c -0.06542,-0.136916 -0.127108,-0.274703 -0.199218,-0.408203 z m -12,3.287109 0,1.527344 0.199218,0.216797 0,-1.744141 -0.199218,0 z m 8,0 0,1.744141 0.199218,-0.216797 0,-1.527344 -0.199218,0 z m 2.199218,4.269531 c -0.06173,0.108133 -0.13201,0.211384 -0.199218,0.316407 l 0,3.193359 c 0.06757,-0.05851 0.133461,-0.119118 0.199218,-0.179688 l 0,-3.330078 z m -12.199218,0.0039 0,3.332031 c 0.06585,0.0606 0.131542,0.121153 0.199218,0.179687 l 0,-3.195312 c -0.06715,-0.104981 -0.13754,-0.208313 -0.199218,-0.316406 z m 10.199218,2.267578 c -0.06602,0.05042 -0.13163,0.102191 -0.199218,0.15039 l 0,2.396485 c 0.06616,-0.03182 0.133841,-0.06036 0.199218,-0.09375 l 0,-2.453125 z m -8.199218,0.002 0,2.455078 c 0.06539,0.03332 0.133048,0.062 0.199218,0.09375 l 0,-2.394531 c -0.06835,-0.0487 -0.132476,-0.103324 -0.199218,-0.154297 z m 6.199218,1.08789 c -0.06618,0.02316 -0.132376,0.04532 -0.199218,0.06641 l 0,2.085937 c 0.06681,-0.01475 0.132755,-0.03257 0.199218,-0.04883 l 0,-2.103516 z m -4.199218,0.002 0,2.103516 c 0.06647,0.0162 0.132401,0.03414 0.199218,0.04883 l 0,-2.085937 c -0.06692,-0.02106 -0.132971,-0.04327 -0.199218,-0.06641 z m 2,0.361329 0,2.001953 c 0.03198,3.59e-4 0.06372,0.0039 0.0957,0.0039 0.03462,3e-6 0.0689,-0.0054 0.103515,-0.0059 l 0,-2 c -0.03463,5.93e-4 -0.06883,0.0059 -0.103515,0.0059 -0.03217,-2e-6 -0.06358,-0.0053 -0.0957,-0.0059 z"
           id="path3386"
           transform="translate(0,1004.3622)" />
      </g>
    </g>
  </g>
</svg>

<?xml version="1.0" encoding="UTF-8" standalone="no"?>
<!-- Created with Inkscape (http://www.inkscape.org/) -->

<svg
   xmlns:dc="http://purl.org/dc/elements/1.1/"
   xmlns:cc="http://creativecommons.org/ns#"
   xmlns:rdf="http://www.w3.org/1999/02/22-rdf-syntax-ns#"
   xmlns:svg="http://www.w3.org/2000/svg"
   xmlns="http://www.w3.org/2000/svg"
   xmlns:sodipodi="http://sodipodi.sourceforge.net/DTD/sodipodi-0.dtd"
   xmlns:inkscape="http://www.inkscape.org/namespaces/inkscape"
   width="48"
   height="48"
   id="svg2"
   version="1.1"
   inkscape:version="0.48+devel r12677"
   sodipodi:docname="drakstats.svg">
  <defs
     id="defs4" />
  <sodipodi:namedview
     id="base"
     pagecolor="#ffffff"
     bordercolor="#666666"
     borderopacity="1.0"
     inkscape:pageopacity="0.0"
     inkscape:pageshadow="2"
     inkscape:zoom="8"
     inkscape:cx="28.860952"
     inkscape:cy="27.049371"
     inkscape:document-units="px"
     inkscape:current-layer="layer1"
     showgrid="false"
     inkscape:showpageshadow="false"
     borderlayer="true"
     inkscape:window-width="1366"
     inkscape:window-height="718"
     inkscape:window-x="0"
     inkscape:window-y="30"
     inkscape:window-maximized="1">
    <sodipodi:guide
       position="9,39.000017"
       orientation="30,0"
       id="guide3275" />
    <sodipodi:guide
       position="9,9.0000174"
       orientation="0,30"
       id="guide3277" />
    <sodipodi:guide
       position="39,9.0000174"
       orientation="-30,0"
       id="guide3279" />
    <sodipodi:guide
       position="39,39.000017"
       orientation="0,-30"
       id="guide3281" />
    <sodipodi:guide
       position="4,44.000017"
       orientation="40,0"
       id="guide4198" />
    <sodipodi:guide
       position="4,4.0000174"
       orientation="0,40"
       id="guide4200" />
    <sodipodi:guide
       position="44,4.0000174"
       orientation="-40,0"
       id="guide4202" />
    <sodipodi:guide
       position="44,44.000017"
       orientation="0,-40"
       id="guide4204" />
    <sodipodi:guide
       position="20.5,8.0002615"
       orientation="4,0"
       id="guide4210" />
    <sodipodi:guide
       position="20.5,4.0002615"
       orientation="0,7"
       id="guide4212" />
    <sodipodi:guide
       position="27.5,4.0002615"
       orientation="-4,0"
       id="guide4214" />
    <sodipodi:guide
       position="27.5,8.0002615"
       orientation="0,-7"
       id="guide4216" />
    <sodipodi:guide
       position="20.5,44.000017"
       orientation="4,0"
       id="guide4229" />
    <sodipodi:guide
       position="20.5,40.000017"
       orientation="0,7"
       id="guide4231" />
    <sodipodi:guide
       position="27.5,40.000017"
       orientation="-4,0"
       id="guide4233" />
    <sodipodi:guide
       position="27.5,44.000017"
       orientation="0,-7"
       id="guide4235" />
  </sodipodi:namedview>
  <metadata
     id="metadata7">
    <rdf:RDF>
      <cc:Work
         rdf:about="">
        <dc:format>image/svg+xml</dc:format>
        <dc:type
           rdf:resource="http://purl.org/dc/dcmitype/StillImage" />
        <dc:title />
      </cc:Work>
    </rdf:RDF>
  </metadata>
  <g
     inkscape:label="Capa 1"
     inkscape:groupmode="layer"
     id="layer1"
     transform="translate(0,-1004.3622)">
    <rect
       style="fill:none;stroke:none"
       id="rect3289"
       width="4"
       height="4"
       x="22"
       y="1004.3622"
       ry="2" />
    <rect
       ry="2"
       y="1048.3622"
       x="22"
       height="4"
       width="4"
       id="rect3291"
       style="fill:none;stroke:none" />
    <rect
       style="fill:#d4a275;fill-opacity:1;fill-rule:evenodd;stroke:none"
       id="rect3304"
       width="40"
       height="40"
       x="4"
       y="1008.3622"
       ry="0" />
    <path
       style="fill:#c89766;fill-opacity:1;fill-rule:evenodd;stroke:none"
       d="M 5.9003906 4 L 5.9003906 44 L 6.0996094 44 L 6.0996094 4 L 5.9003906 4 z M 7.9003906 4 L 7.9003906 44 L 8.0996094 44 L 8.0996094 4 L 7.9003906 4 z M 9.9003906 4 L 9.9003906 44 L 10.099609 44 L 10.099609 4 L 9.9003906 4 z M 11.900391 4 L 11.900391 44 L 12.099609 44 L 12.099609 4 L 11.900391 4 z M 13.900391 4 L 13.900391 44 L 14.099609 44 L 14.099609 4 L 13.900391 4 z M 15.900391 4 L 15.900391 44 L 16.099609 44 L 16.099609 4 L 15.900391 4 z M 17.900391 4 L 17.900391 44 L 18.099609 44 L 18.099609 4 L 17.900391 4 z M 19.900391 4 L 19.900391 44 L 20.099609 44 L 20.099609 4 L 19.900391 4 z M 21.900391 4 L 21.900391 44 L 22.099609 44 L 22.099609 4 L 21.900391 4 z M 23.900391 4 L 23.900391 44 L 24.099609 44 L 24.099609 4 L 23.900391 4 z M 25.900391 4 L 25.900391 44 L 26.099609 44 L 26.099609 4 L 25.900391 4 z M 27.900391 4 L 27.900391 44 L 28.099609 44 L 28.099609 4 L 27.900391 4 z M 29.900391 4 L 29.900391 44 L 30.099609 44 L 30.099609 4 L 29.900391 4 z M 31.900391 4 L 31.900391 44 L 32.099609 44 L 32.099609 4 L 31.900391 4 z M 33.900391 4 L 33.900391 44 L 34.099609 44 L 34.099609 4 L 33.900391 4 z M 35.900391 4 L 35.900391 44 L 36.099609 44 L 36.099609 4 L 35.900391 4 z M 37.900391 4 L 37.900391 44 L 38.099609 44 L 38.099609 4 L 37.900391 4 z M 39.900391 4 L 39.900391 44 L 40.099609 44 L 40.099609 4 L 39.900391 4 z M 41.900391 4 L 41.900391 44 L 42.099609 44 L 42.099609 4 L 41.900391 4 z "
       transform="translate(0,1004.3622)"
       id="rect3340" />
    <path
       style="fill:#201810;fill-opacity:1;stroke:none"
       d="M 23.996094 15 C 21.639736 15.0002 19.297777 15.970619 17.632812 17.636719 C 15.967848 19.302819 15 21.644 15 24 C 15 26.356 15.967848 28.697181 17.632812 30.363281 C 19.297777 32.029381 21.639736 32.9998 23.996094 33 C 26.35245 33.0002 28.694239 32.029381 30.361328 30.363281 C 32.028418 28.697181 33 26.3563 33 24 C 33 21.6437 32.028418 19.302819 30.361328 17.636719 C 28.694239 15.970619 26.35245 14.9998 23.996094 15 z M 23.996094 17 C 27.661538 16.9998 31 20.3347 31 24 C 31 27.6653 27.661538 31.0002 23.996094 31 C 20.330649 30.9998 17 27.665 17 24 C 17 20.335 20.330649 17.0002 23.996094 17 z "
       transform="translate(0,1004.3622)"
       id="path3331" />
    <rect
       style="fill:#201810;fill-opacity:1;fill-rule:evenodd;stroke:none"
       id="rect4351"
       width="4"
       height="7"
       x="22"
       y="1023.3622" />
    <path
       sodipodi:type="star"
       style="fill:#201810;fill-opacity:1;fill-rule:evenodd;stroke:none"
       id="path4353"
       sodipodi:sides="3"
       sodipodi:cx="24.000002"
       sodipodi:cy="1033.1117"
       sodipodi:r1="4.2504597"
       sodipodi:r2="2.1252298"
       sodipodi:arg1="1.5707963"
       sodipodi:arg2="2.6179939"
       inkscape:flatsided="true"
       inkscape:rounded="0"
       inkscape:randomized="0"
       d="m 24.000002,1037.3622 -3.681006,-6.3757 7.362012,0 z"
       inkscape:transform-center-y="1.0001363"
       transform="matrix(1.4941567,0,0,0.94107467,-11.859764,57.126936)" />
    <rect
       ry="2"
       y="1026.3622"
       x="44"
       height="4"
       width="4"
       id="rect3287"
       style="fill:none;stroke:none" />
    <rect
       style="fill:none;stroke:none"
       id="rect3285"
       width="4"
       height="4"
       x="0"
       y="1026.3622"
       ry="2" />
    <path
       style="fill:#110d08;fill-opacity:1;fill-rule:evenodd;stroke:none"
       d="M 23.996094 15 C 23.964109 15.000003 23.932369 15.003547 23.900391 15.003906 L 23.900391 17.005859 C 23.932509 17.005346 23.963922 17.000002 23.996094 17 C 24.030783 16.999998 24.064981 17.005266 24.099609 17.005859 L 24.099609 15.005859 C 24.064994 15.005444 24.030717 14.999997 23.996094 15 z M 22.099609 15.214844 C 22.032792 15.229534 21.966865 15.247476 21.900391 15.263672 L 21.900391 17.367188 C 21.966638 17.344048 22.032691 17.321838 22.099609 17.300781 L 22.099609 15.214844 z M 25.900391 15.216797 L 25.900391 17.302734 C 25.967233 17.323819 26.033434 17.345979 26.099609 17.369141 L 26.099609 15.265625 C 26.033146 15.249371 25.967198 15.231545 25.900391 15.216797 z M 20.099609 15.908203 C 20.033439 15.939954 19.965778 15.968631 19.900391 16.001953 L 19.900391 18.457031 C 19.967133 18.406058 20.031259 18.35143 20.099609 18.302734 L 20.099609 15.908203 z M 27.900391 15.912109 L 27.900391 18.308594 C 27.967979 18.356793 28.033592 18.408562 28.099609 18.458984 L 28.099609 16.005859 C 28.034232 15.972471 27.96655 15.943927 27.900391 15.912109 z M 18.099609 17.214844 C 18.031933 17.273378 17.966245 17.333931 17.900391 17.394531 L 17.900391 20.726562 C 17.962069 20.618469 18.03246 20.515137 18.099609 20.410156 L 18.099609 17.214844 z M 29.900391 17.220703 L 29.900391 20.414062 C 29.967599 20.519085 30.03788 20.622336 30.099609 20.730469 L 30.099609 17.400391 C 30.033852 17.339821 29.967961 17.279215 29.900391 17.220703 z M 22 19 L 22 23 L 21.900391 23 L 21.900391 26.708984 L 22.099609 26.927734 L 22.099609 19 L 22 19 z M 23.900391 19 L 23.900391 28.890625 L 24 29 L 24.099609 28.890625 L 24.099609 19 L 23.900391 19 z M 25.900391 19 L 25.900391 26.927734 L 26.099609 26.708984 L 26.099609 23 L 26 23 L 26 19 L 25.900391 19 z M 16.099609 19.708984 C 16.02772 19.842238 15.965622 19.980526 15.900391 20.117188 L 15.900391 27.882812 C 15.965622 28.019474 16.02772 28.157762 16.099609 28.291016 L 16.099609 19.708984 z M 31.900391 19.712891 L 31.900391 28.287109 C 31.972501 28.153609 32.034185 28.015822 32.099609 27.878906 L 32.099609 20.121094 C 32.034185 19.984178 31.972501 19.846391 31.900391 19.712891 z M 19.900391 23 L 19.900391 24.527344 L 20.099609 24.744141 L 20.099609 23 L 19.900391 23 z M 27.900391 23 L 27.900391 24.744141 L 28.099609 24.527344 L 28.099609 23 L 27.900391 23 z M 30.099609 27.269531 C 30.03788 27.377664 29.967599 27.480915 29.900391 27.585938 L 29.900391 30.779297 C 29.967961 30.720785 30.033852 30.660179 30.099609 30.599609 L 30.099609 27.269531 z M 17.900391 27.273438 L 17.900391 30.605469 C 17.966245 30.666069 18.031933 30.726622 18.099609 30.785156 L 18.099609 27.589844 C 18.03246 27.484863 17.962069 27.381531 17.900391 27.273438 z M 28.099609 29.541016 C 28.033592 29.591438 27.967979 29.643207 27.900391 29.691406 L 27.900391 32.087891 C 27.96655 32.056073 28.034232 32.027529 28.099609 31.994141 L 28.099609 29.541016 z M 19.900391 29.542969 L 19.900391 31.998047 C 19.965778 32.031369 20.033439 32.060046 20.099609 32.091797 L 20.099609 29.697266 C 20.031259 29.64857 19.967133 29.593942 19.900391 29.542969 z M 26.099609 30.630859 C 26.033434 30.654021 25.967233 30.676181 25.900391 30.697266 L 25.900391 32.783203 C 25.967198 32.768455 26.033146 32.750629 26.099609 32.734375 L 26.099609 30.630859 z M 21.900391 30.632812 L 21.900391 32.736328 C 21.966865 32.752524 22.032792 32.770466 22.099609 32.785156 L 22.099609 30.699219 C 22.032691 30.678162 21.966638 30.655952 21.900391 30.632812 z M 23.900391 30.994141 L 23.900391 32.996094 C 23.932369 32.996453 23.964109 32.999997 23.996094 33 C 24.030717 33.000003 24.064994 32.994556 24.099609 32.994141 L 24.099609 30.994141 C 24.064981 30.994734 24.030783 31.000002 23.996094 31 C 23.963922 30.999998 23.932509 30.994654 23.900391 30.994141 z "
       transform="translate(0,1004.3622)"
       id="path3386" />
    <rect
       style="fill:none;stroke:none"
       id="rect3327"
       width="2"
       height="2"
       x="23"
       y="1019.3622"
       ry="1" />
    <rect
       ry="1"
       y="1021.3622"
       x="23"
       height="2"
       width="2"
       id="rect3334"
       style="fill:none;stroke:none" />
    <rect
       style="fill:none;stroke:none"
       id="rect3336"
       width="2"
       height="2"
       x="23"
       y="1035.3622"
       ry="1" />
    <rect
       ry="1"
       y="1033.3622"
       x="23"
       height="2"
       width="2"
       id="rect3338"
       style="fill:none;stroke:none" />
    <rect
       style="fill:#dbb797;fill-opacity:1;fill-rule:evenodd;stroke:none"
       id="rect4206"
       width="7"
       height="4.000001"
       x="20.5"
       y="1044.3619" />
    <rect
       y="1008.3622"
       x="20.5"
       height="4.000001"
       width="7"
       id="rect4223"
       style="fill:#dbb797;fill-opacity:1;fill-rule:evenodd;stroke:none" />
  </g>
</svg>
